X:1
T:Michael Turner's Waltz
T:Michael Turner's Waltz
T:Mozart, 1788
C:Mozart, 1788
%%score 1 2 3
L:1/8
Q:1/4=120
M:3/4
K:G
V:1 treble 
V:2 treble 
V:3 bass 
V:1
|:"^A" GA |"G" B2 B2 cA |"^/" d2 d2 gf |"C"{f} e2 e2 ge |"G"{e} d2 d2 GA |"G" B2 B2 cA | %6
"^/" d2 d2"D7" cA |"G" G2 G2"D7" AB | G4 :: AB |"D7" c2 cd Bc |"^/" A2 A2 Bc |"G" d2 de cd | %13
"^/" B2 B2 gf |"C"{f} e2 e2 ge |"G"{e} d2 d2 GA |"G" B2 Bc"D7" AB |"G" G4 :| %18
V:2
|: GF | (GFGDAF) | (BGDCB,D) | (CG,CDEC) | (B,G,B,CDF) | (GFGDAF) | (BGDGFC) | (B,DB,DCD) | %8
 B,2 z2 :: FG | (AFD)D(DE) | (FGEFGA) | (BGD)D(EF) | (GEDCB,D) | (CG,CDEC) | (B,DGG,B,C) | %16
 DD(DE)(CD) | B,2 z2 :| %18
V:3
|: z2 | G,,2 G,2 G,2 | G,2 G,2 G,2 | G,2 G,2 G,2 | G,2 G,,2 z2 | G,,2 G,2 G,2 | G,2 B,,2 D,2 | %7
 G,,2 B,,2 D,2 | G,2 G,,2 :: z2 | D,2 F,2 G,2 | D2 D,2 z2 | G,,2 B,,2 D,2 | G,2 G,,2 G,,2 | %14
 G,,2 G,,2 G,,2 | G,,2 B,,2 D,2 | G,2 B,,2 D,2 | G,,2 G,2 :| %18

